X: 43647
T: Zina Warrior Princess
R: hornpipe
M: 4/4
K: Dmajor
|:(3FGA|d>A (3GFE D>GF>E|D>Ad>c d>AF>A|B>GE>D C2 (3DEF|G>FG>A B>A (3FGA|
d>A (3GFE D>GF>E|D>Ad>c d>AF>A|B>gd>B A>fd>A|(3cBA (3GFE D2:|
|:(3GFE|D2 A>c d2 (3ABc|d2 A>c d>AG>F|E2 B>^d e2 B>d|e2 (3Bc^d e>GF>E|
D2 A>c d2 (3ABc|d2 A>c d>AG>F|B>gd>B A>fd>A|(3cBA (3GFE D2:|
|:(3age|f2 A>f- f>Ad>f|e2 A>e- e>Ac>e|d>BG>B d>BG>d|e>cA>c e>c (3age|
f2 A>f- f>Ad>f|e2 A>e- e>Ac>e|B>gd>B A>fd>A|(3cBA (3GFE D2:|

